app/assets/v2/images/kudos/data_savvy.svg

<svg width="730" height="843" viewBox="0 0 730 843" xmlns="http://www.w3.org/2000/svg" xmlns:xlink="http://www.w3.org/1999/xlink"><defs><path id="a" d="M333.445.775l-333 185 14 370 336 199 332-197-22-390z"/></defs><g fill="none" fill-rule="evenodd"><path fill="#2E3192" fill-rule="nonzero" d="M668.156 596.559v-349.91L364.945 71.694 61.733 246.649v349.91l303.212 174.955z"/><g transform="translate(20 51)" opacity=".48"><mask id="b" fill="#fff"><use xlink:href="#a"/></mask><g opacity=".51" mask="url(#b)" fill="#FFF" font-family="Helvetica" font-size="24.965"><text transform="translate(-90 -2)"><tspan x=".844" y="24.65">00111101 0011010 0 1100 10 000111101 0011010 0 1100</tspan></text><text transform="translate(-90 -2)"><tspan x=".844" y="51.865">001 0011 010 0 110 00001 0011 010 0 110 00</tspan></text><text transform="translate(-90 -2)"><tspan x=".844" y="79.08">0 101 00 11010 0 1100 100000 01 00 11 010 0 1100 100000</tspan></text><text transform="translate(-90 -2)"><tspan x=".844" y="160.724">0 101 00 1 00 100 000 101 00 110 10 0 110</tspan></text><text transform="translate(-90 -2)"><tspan x=".844" y="106.295">00111 00 110 10 0 110 0 10 011 00 11 0 10 0 11</tspan></text><text transform="translate(-90 -2)"><tspan x=".844" y="133.517">001 010 0 110 0 1 010 0 110 0 100</tspan></text><text transform="translate(-90 -2)"><tspan x=".844" y="187.947">00111101 0011010 0 1100 10 11101 0011010 0 1100</tspan></text><text transform="translate(-90 -2)"><tspan x=".844" y="215.162">001 0011 010 0 110 00001 0011 010 0 110 00</tspan></text><text transform="translate(-90 -2)"><tspan x=".844" y="242.377">0 101 00 1 00 100000 01 00 11 010 0 1100 100000</tspan></text><text transform="translate(-90 -2)"><tspan x=".844" y="324.017">0 101 00 11010 0 1100 100 000 101 00 110 10 0 110</tspan></text><text transform="translate(-90 -2)"><tspan x=".844" y="269.592">00111 0 110 0 10 011 00 11 0 10 0 11</tspan></text><text transform="translate(-90 -2)"><tspan x=".844" y="296.803">001 010 0 110 0 100 01 010 0 110 0 100</tspan></text><text transform="translate(-90 -2)"><tspan x=".844" y="351.232">00111101 0011010 0 11101 0011010 0 1100</tspan></text><text transform="translate(-90 -2)"><tspan x=".844" y="378.447">001 0 0 0 110 00001 0011 010 0 110 00</tspan></text><text transform="translate(-90 -2)"><tspan x=".844" y="405.662">0 101 00 11 100 100000 01 00 11 010 0 1100 100000</tspan></text><text transform="translate(-90 -2)"><tspan x=".844" y="487.314">0 101 00 11010 0 1100 100 000 101 00 110 10 0 110</tspan></text><text transform="translate(-90 -2)"><tspan x=".844" y="432.885">00111 00 110 10 0 110 0 10 011 00 11 0 10 0 11</tspan></text><text transform="translate(-90 -2)"><tspan x=".844" y="460.092">001 010 0 110 0 100 01 010 0 110 0 100</tspan></text><text transform="translate(-90 -2)"><tspan x=".844" y="568.959">0 101 00 11010 0 1100 100 000 101 00 110 10 0 110</tspan></text><text transform="translate(-90 -2)"><tspan x=".844" y="514.529">00111 0 110 0 10 011 00 11 0 10 0 11</tspan></text><text transform="translate(-90 -2)"><tspan x=".844" y="541.744">001 010 0 110 0 100 01 010 0 110 0 100</tspan></text><text transform="translate(-90 -2)"><tspan x=".844" y="596.174">00111101 0011010 0 11101 0011010 0 1100</tspan></text><text transform="translate(-90 -2)"><tspan x=".844" y="623.388">001 0 0 0 110 00001 0011 010 0 110 00</tspan></text><text transform="translate(-90 -2)"><tspan x=".844" y="650.603">0 101 00 11 100 100000 01 00 11 010 0 1100 100000</tspan></text><text transform="translate(-90 -2)"><tspan x=".844" y="732.252">0 101 00 11010 0 1100 100 000 101 00 110 10 0 110</tspan></text><text transform="translate(-90 -2)"><tspan x=".844" y="677.818">00111 00 110 10 0 110 0 10 011 00 11 0 10 0 11</tspan></text><text transform="translate(-90 -2)"><tspan x=".844" y="705.033">001 010 0 110 0 100 01 010 0 110 0 100</tspan></text></g></g><g fill-rule="nonzero"><path d="M365.274 771.185L62.062 596.23V246.32L365.274 71.365 668.486 246.32v349.91L365.274 771.185zM.236 631.748L365.274 842.22l364.38-210.472V210.802L365.274.33.236 210.802v420.946z" fill="#662D91"/><path d="M77.847 255.528L365.274 89.781l286.769 165.747v331.494L365.274 752.769 77.847 587.022V255.528zm-15.128-9.208v349.91l302.555 174.955L667.827 596.23V246.977L365.274 72.022 62.719 246.32z" opacity=".13" fill="#000"/></g><path d="M532.007 272.958c-1.315-5.919-21.705-9.866-46.698-9.866h-2.631c-1.974-5.919-7.893-9.865-14.471-9.865-2.631 0-4.604.657-6.577 1.315-1.315-12.497-12.497-23.021-25.651-23.021-7.234 0-13.154 2.631-17.758 7.234-4.604-11.181-15.128-19.074-27.625-19.074-1.973 0-3.289 0-5.262.658-4.604-11.839-15.785-19.731-28.282-21.705-1.315-13.154-12.497-24.336-25.651-24.336-14.47 0-26.31 11.839-26.31 26.31v1.973c-13.154 2.631-23.02 13.813-23.02 27.625 0 1.315 0 3.288.657 4.604h-.657c-13.155 0-23.679 9.866-24.336 23.021-7.235-1.973-16.443-2.631-25.651-2.631-25.651 0-46.698 7.235-46.698 15.786 0 1.315.657 1.973 1.315 3.288-20.39 1.315-32.887 4.604-36.176 6.577-36.175 18.417 134.834 13.813 165.747 11.182 30.913-2.631 140.096-2.631 167.063-1.974 26.31.658 110.498 2.631 100.632-9.865-5.919-4.605-33.544-5.263-51.96-7.236z" fill="#92C1F4" fill-rule="nonzero"/><g fill-rule="nonzero"><path fill="#FCF295" d="M355.737 290.058l-55.908-29.597 55.908-28.94 55.906 28.94z"/><path fill="#FCEE21" d="M355.737 503.82V290.058l-55.249-28.939V474.88z"/><path fill="#B7A611" d="M355.737 503.82V290.058l55.249-28.939V474.88z"/><path fill="#FCF295" d="M282.729 387.402l-55.906-28.939 55.906-29.598 55.249 29.598z"/><path fill="#FCEE21" d="M282.729 541.968V387.402l-55.906-28.939v154.565z"/><path fill="#B7A611" d="M282.729 541.968V387.402l55.249-28.939v154.565z"/><path fill="#FCF295" d="M209.721 503.162l-55.249-29.598 55.249-28.939 55.907 28.939z"/><path fill="#FCEE21" d="M209.721 580.116v-76.954l-55.249-28.94v76.955z"/><path fill="#B7A611" d="M209.721 580.116v-76.954l55.907-28.94v76.955z"/><path fill="#8CC63F" d="M434.663 364.382l-55.906-29.598 55.906-28.94 55.249 28.94z"/><path fill="#39B54A" d="M434.663 543.283V364.382l-55.906-29.598v179.56z"/><path fill="#009245" d="M434.663 543.283V364.382l55.249-29.598v179.56z"/><path fill="#8CC63F" d="M360.998 461.067l-55.249-29.598 55.249-28.939 55.907 28.939z"/><path fill="#39B54A" d="M360.998 581.431V461.067l-55.249-28.939v120.364z"/><path fill="#009245" d="M360.998 581.431V461.067l55.907-28.939v120.364z"/><path fill="#8CC63F" d="M288.649 542.626l-55.908-29.598 55.908-28.94 55.906 28.94z"/><path fill="#39B54A" d="M288.649 619.58v-76.954L233.4 513.028v77.611z"/><path fill="#009245" d="M288.649 619.58v-76.954l55.249-29.598v77.611z"/><path fill="#78D3F4" d="M512.933 433.443l-55.249-28.94 55.249-29.598 55.907 29.598z"/><g><path fill="#29ABE2" d="M512.933 582.747V433.443l-55.249-28.94v148.646z"/><path fill="#0071BC" d="M512.933 582.747V433.443l55.907-28.94v148.646z"/></g><path fill="#78D3F4" d="M439.925 524.867l-55.249-29.598 55.249-28.939 55.907 28.939z"/><g><path fill="#29ABE2" d="M439.925 620.895v-96.028l-55.249-28.94v96.028z"/><path fill="#0071BC" d="M439.925 620.895v-96.028l55.249-28.94v96.028z"/></g><path fill="#78D3F4" d="M367.575 581.431l-55.906-28.939 55.906-29.598 55.249 29.598z"/><g><path fill="#29ABE2" d="M367.575 659.043v-77.612l-55.906-28.939v77.611z"/><path fill="#0071BC" d="M367.575 659.043v-77.612l55.249-28.939v77.611z"/></g></g></g></svg>

<svg width="730px" height="843px" viewBox="0 0 730 843" version="1.1" xmlns="http://www.w3.org/2000/svg" xmlns:xlink="http://www.w3.org/1999/xlink">
    <!-- Generator: Sketch 51.2 (57519) - http://www.bohemiancoding.com/sketch -->
    <desc>Created with Sketch.</desc>
    <defs>
        <polygon id="path-1" points="333.445 0.775 0.445 185.775 14.445 555.775 350.445 754.775 682.445 557.775 660.445 167.775"></polygon>
    </defs>
    <g id="Page-1" stroke="none" stroke-width="1" fill="none" fill-rule="evenodd">
        <g id="data_savvy">
            <polygon id="Shape" fill="#2E3192" fill-rule="nonzero" points="668.156 596.559 668.156 246.649 364.945 71.694 61.733 246.649 61.733 596.559 364.945 771.514"></polygon>
            <g id="Group" opacity="0.48" transform="translate(20.000000, 51.000000)">
                <g id="Clipped">
                    <g>
                        <mask id="mask-2" fill="white">
                            <use xlink:href="#path-1"></use>
                        </mask>
                        <g id="SVGID_1_"></g>
                        <g id="Group" opacity="0.51" mask="url(#mask-2)" fill="#FFFFFF" font-family="Helvetica" font-size="24.9647" font-weight="normal">
                            <g transform="translate(-90.000000, -2.000000)">
                                <text id="00111101-----0011010--0--------1100-10-000111101-----0011010--0--------1100">
                                    <tspan x="0.844" y="24.6501">00111101     0011010  0        1100 10 000111101     0011010  0        1100</tspan>
                                </text>
                                <text id="001------0011--010--0--------110------00001------0011--010--0--------110------00">
                                    <tspan x="0.844" y="51.865">001      0011  010  0        110      00001      0011  010  0        110      00</tspan>
                                </text>
                                <text id="0---101-----00-11010--0----1100-100000--01-----00-11---010--0----1100-100000">
                                    <tspan x="0.844" y="79.0798">0   101     00 11010  0    1100 100000  01     00 11   010  0    1100 100000</tspan>
                                </text>
                                <text id="0---101-----00-1----------------------00-100----000---101-----00-110---10--0----110">
                                    <tspan x="0.844" y="160.7244">0   101     00 1                      00 100    000   101     00 110   10  0    110</tspan>
                                </text>
                                <text id="00111-----00-110--10--0--------110---0-10---011-----00-11-----0--10--0--------11">
                                    <tspan x="0.844" y="106.2947">00111     00 110  10  0        110   0 10   011     00 11     0  10  0        11</tspan>
                                </text>
                                <text id="001---------010--0--------110-------0-1---------010--0--------110-------0-100">
                                    <tspan x="0.844" y="133.5173">001         010  0        110       0 1         010  0        110       0 100</tspan>
                                </text>
                                <text id="00111101-----0011010--0--------1100-10--------11101-----0011010--0--------1100">
                                    <tspan x="0.844" y="187.947">00111101     0011010  0        1100 10        11101     0011010  0        1100</tspan>
                                </text>
                                <text id="001------0011--010--0--------110------00001------0011--010--0--------110------00">
                                    <tspan x="0.844" y="215.1619">001      0011  010  0        110      00001      0011  010  0        110      00</tspan>
                                </text>
                                <text id="0---101-----00-1---------------00-100000--01-----00-11---010--0----1100-100000">
                                    <tspan x="0.844" y="242.3767">0   101     00 1               00 100000  01     00 11   010  0    1100 100000</tspan>
                                </text>
                                <text id="0---101-----00-11010--0----1100-100----000---101-----00-110---10--0----110">
                                    <tspan x="0.844" y="324.0173">0   101     00 11010  0    1100 100    000   101     00 110   10  0    110</tspan>
                                </text>
                                <text id="00111-------------------------0--------110---0-10---011-----00-11-----0--10--0--------11">
                                    <tspan x="0.844" y="269.5916">00111                         0        110   0 10   011     00 11     0  10  0        11</tspan>
                                </text>
                                <text id="001---------010--0--------110-------0-100-01---------010--0--------110-------0-100">
                                    <tspan x="0.844" y="296.8025">001         010  0        110       0 100 01         010  0        110       0 100</tspan>
                                </text>
                                <text id="00111101-----0011010--0----------------------11101-----0011010--0--------1100">
                                    <tspan x="0.844" y="351.2322">00111101     0011010  0                      11101     0011010  0        1100</tspan>
                                </text>
                                <text id="001------0----------------0--0--------110------00001------0011--010--0--------110------00">
                                    <tspan x="0.844" y="378.447">001      0                0  0        110      00001      0011  010  0        110      00</tspan>
                                </text>
                                <text id="0---101-----00-11---------------100-100000--01-----00-11---010--0----1100-100000">
                                    <tspan x="0.844" y="405.6619">0   101     00 11               100 100000  01     00 11   010  0    1100 100000</tspan>
                                </text>
                                <text id="0---101-----00-11010--0----1100-100----000---101-----00-110---10--0----110">
                                    <tspan x="0.844" y="487.3142">0   101     00 11010  0    1100 100    000   101     00 110   10  0    110</tspan>
                                </text>
                                <text id="00111-----00-110--10--0--------110---0-10---011-----00-11-----0--10--0--------11">
                                    <tspan x="0.844" y="432.8845">00111     00 110  10  0        110   0 10   011     00 11     0  10  0        11</tspan>
                                </text>
                                <text id="001---------010--0--------110-------0-100-01---------010--0--------110-------0-100">
                                    <tspan x="0.844" y="460.0916">001         010  0        110       0 100 01         010  0        110       0 100</tspan>
                                </text>
                                <text id="0---101-----00-11010--0----1100-100----000---101-----00-110---10--0----110">
                                    <tspan x="0.844" y="568.9587">0   101     00 11010  0    1100 100    000   101     00 110   10  0    110</tspan>
                                </text>
                                <text id="00111-------------------------0--------110---0-10---011-----00-11-----0--10--0--------11">
                                    <tspan x="0.844" y="514.5291">00111                         0        110   0 10   011     00 11     0  10  0        11</tspan>
                                </text>
                                <text id="001---------010--0--------110-------0-100-01---------010--0--------110-------0-100">
                                    <tspan x="0.844" y="541.7439">001         010  0        110       0 100 01         010  0        110       0 100</tspan>
                                </text>
                                <text id="00111101-----0011010--0----------------------11101-----0011010--0--------1100">
                                    <tspan x="0.844" y="596.1736">00111101     0011010  0                      11101     0011010  0        1100</tspan>
                                </text>
                                <text id="001------0----------------0--0--------110------00001------0011--010--0--------110------00">
                                    <tspan x="0.844" y="623.3884">001      0                0  0        110      00001      0011  010  0        110      00</tspan>
                                </text>
                                <text id="0---101-----00-11---------------100-100000--01-----00-11---010--0----1100-100000">
                                    <tspan x="0.844" y="650.6033">0   101     00 11               100 100000  01     00 11   010  0    1100 100000</tspan>
                                </text>
                                <text id="0---101-----00-11010--0----1100-100----000---101-----00-110---10--0----110">
                                    <tspan x="0.844" y="732.2517">0   101     00 11010  0    1100 100    000   101     00 110   10  0    110</tspan>
                                </text>
                                <text id="00111-----00-110--10--0--------110---0-10---011-----00-11-----0--10--0--------11">
                                    <tspan x="0.844" y="677.8181">00111     00 110  10  0        110   0 10   011     00 11     0  10  0        11</tspan>
                                </text>
                                <text id="001---------010--0--------110-------0-100-01---------010--0--------110-------0-100">
                                    <tspan x="0.844" y="705.033">001         010  0        110       0 100 01         010  0        110       0 100</tspan>
                                </text>
                            </g>
                        </g>
                    </g>
                </g>
            </g>
            <g id="Group" fill-rule="nonzero">
                <path d="M365.274,771.185 L62.062,596.23 L62.062,246.32 L365.274,71.365 L668.486,246.32 L668.486,596.23 L365.274,771.185 Z M0.236,631.748 L365.274,842.22 L729.654,631.748 L729.654,210.802 L365.274,0.33 L0.236,210.802 L0.236,631.748 Z" id="Shape" fill="#662D91"></path>
                <g opacity="0.13" transform="translate(62.000000, 72.000000)" fill="#000000" id="Shape">
                    <g>
                        <path d="M15.847,183.528 L303.274,17.781 L590.043,183.528 L590.043,515.022 L303.274,680.769 L15.847,515.022 L15.847,183.528 Z M0.719,174.32 L0.719,524.23 L303.274,699.185 L605.827,524.23 L605.827,174.977 L303.274,0.022 L0.719,174.32 Z"></path>
                    </g>
                </g>
            </g>
            <path d="M532.007,272.958 C530.692,267.039 510.302,263.092 485.309,263.092 C484.651,263.092 483.335,263.092 482.678,263.092 C480.704,257.173 474.785,253.227 468.207,253.227 C465.576,253.227 463.603,253.884 461.63,254.542 C460.315,242.045 449.133,231.521 435.979,231.521 C428.745,231.521 422.825,234.152 418.221,238.755 C413.617,227.574 403.093,219.681 390.596,219.681 C388.623,219.681 387.307,219.681 385.334,220.339 C380.73,208.5 369.549,200.608 357.052,198.634 C355.737,185.48 344.555,174.298 331.401,174.298 C316.931,174.298 305.091,186.137 305.091,200.608 C305.091,201.265 305.091,201.923 305.091,202.581 C291.937,205.212 282.071,216.394 282.071,230.206 C282.071,231.521 282.071,233.494 282.728,234.81 L282.071,234.81 C268.916,234.81 258.392,244.676 257.735,257.831 C250.5,255.858 241.292,255.2 232.084,255.2 C206.433,255.2 185.386,262.435 185.386,270.986 C185.386,272.301 186.043,272.959 186.701,274.274 C166.311,275.589 153.814,278.878 150.525,280.851 C114.35,299.268 285.359,294.664 316.272,292.033 C347.185,289.402 456.368,289.402 483.335,290.059 C509.645,290.717 593.833,292.69 583.967,280.194 C578.048,275.589 550.423,274.931 532.007,272.958 Z" id="Shape" fill="#92C1F4" fill-rule="nonzero"></path>
            <g id="Group" transform="translate(154.000000, 231.000000)" fill-rule="nonzero">
                <polygon id="Shape" fill="#FCF295" points="201.737 59.058 145.829 29.461 201.737 0.521 257.643 29.461"></polygon>
                <g transform="translate(146.000000, 30.000000)" id="Shape">
                    <polygon fill="#FCEE21" points="55.737 242.82 55.737 29.058 0.488 0.119 0.488 213.88"></polygon>
                    <polygon fill="#B7A611" points="55.737 242.82 55.737 29.058 110.986 0.119 110.986 213.88"></polygon>
                </g>
                <polygon id="Shape" fill="#FCF295" points="128.729 156.402 72.823 127.463 128.729 97.865 183.978 127.463"></polygon>
                <g transform="translate(72.000000, 127.000000)" id="Shape">
                    <polygon fill="#FCEE21" points="56.729 183.968 56.729 29.402 0.823 0.463 0.823 155.028"></polygon>
                    <polygon fill="#B7A611" points="56.729 183.968 56.729 29.402 111.978 0.463 111.978 155.028"></polygon>
                </g>
                <polygon id="Shape" fill="#FCF295" points="55.721 272.162 0.472 242.564 55.721 213.625 111.628 242.564"></polygon>
                <g transform="translate(0.000000, 243.000000)" id="Shape">
                    <polygon fill="#FCEE21" points="55.721 106.116 55.721 29.162 0.472 0.222 0.472 77.177"></polygon>
                    <polygon fill="#B7A611" points="55.721 106.116 55.721 29.162 111.628 0.222 111.628 77.177"></polygon>
                </g>
                <polygon id="Shape" fill="#8CC63F" points="280.663 133.382 224.757 103.784 280.663 74.844 335.912 103.784"></polygon>
                <g transform="translate(224.000000, 103.000000)" id="Shape">
                    <polygon fill="#39B54A" points="56.663 209.283 56.663 30.382 0.757 0.784 0.757 180.344"></polygon>
                    <polygon fill="#009245" points="56.663 209.283 56.663 30.382 111.912 0.784 111.912 180.344"></polygon>
                </g>
                <polygon id="Shape" fill="#8CC63F" points="206.998 230.067 151.749 200.469 206.998 171.53 262.905 200.469"></polygon>
                <g transform="translate(151.000000, 201.000000)" id="Shape">
                    <polygon fill="#39B54A" points="55.998 149.431 55.998 29.067 0.749 0.128 0.749 120.492"></polygon>
                    <polygon fill="#009245" points="55.998 149.431 55.998 29.067 111.905 0.128 111.905 120.492"></polygon>
                </g>
                <polygon id="Shape" fill="#8CC63F" points="134.649 311.626 78.741 282.028 134.649 253.088 190.555 282.028"></polygon>
                <g transform="translate(79.000000, 282.000000)" id="Shape">
                    <polygon fill="#39B54A" points="55.649 106.58 55.649 29.626 0.4 0.028 0.4 77.639"></polygon>
                    <polygon fill="#009245" points="55.649 106.58 55.649 29.626 110.898 0.028 110.898 77.639"></polygon>
                </g>
                <polygon id="Shape" fill="#78D3F4" points="358.933 202.443 303.684 173.503 358.933 143.905 414.84 173.503"></polygon>
                <g transform="translate(303.000000, 173.000000)" id="Shape">
                    <polygon fill="#29ABE2" points="55.933 178.747 55.933 29.443 0.684 0.503 0.684 149.149"></polygon>
                    <polygon fill="#0071BC" points="55.933 178.747 55.933 29.443 111.84 0.503 111.84 149.149"></polygon>
                </g>
                <polygon id="Shape" fill="#78D3F4" points="285.925 293.867 230.676 264.269 285.925 235.33 341.832 264.269"></polygon>
                <g transform="translate(230.000000, 264.000000)" id="Shape">
                    <polygon fill="#29ABE2" points="55.925 125.895 55.925 29.867 0.676 0.927 0.676 96.955"></polygon>
                    <polygon fill="#0071BC" points="55.925 125.895 55.925 29.867 111.174 0.927 111.174 96.955"></polygon>
                </g>
                <polygon id="Shape" fill="#78D3F4" points="213.575 350.431 157.669 321.492 213.575 291.894 268.824 321.492"></polygon>
                <g transform="translate(157.000000, 321.000000)" id="Shape">
                    <polygon fill="#29ABE2" points="56.575 107.043 56.575 29.431 0.669 0.492 0.669 78.103"></polygon>
                    <polygon fill="#0071BC" points="56.575 107.043 56.575 29.431 111.824 0.492 111.824 78.103"></polygon>
                </g>
            </g>
        </g>
    </g>
</svg>
